X:262
T:Tenpenny Bit, The
R:jig
Z:id:hn-jig-262
M:6/8
K:G
edB G2A|Bed Bcd|edB G2A|BAF GFE|
DBD G2A|Bed Bcd|edB gdB|ABG ABd:|
|:e2f ~g3|eag fed|e2f ~g3|efg ~a3|
bag agf|gfe daf|gfe edB|ABG ABd:|
P:variations
|:edB G2A|Bcd Bcd|edB G2A|BAF GFE|
DED G2A|Bcd Bcd|edB gdB|1 BAG A2g:|2 BAG ~A3||
|:e2f ~g3|eag fed|e2f ~g3|efg ~a3|
bag agf|gfe def|gfg edB|1 BAG ~A3:|2 BAG A2g||

